src/asset/img/icon/cross.svg

<svg height="24" width="24" xmlns="http://www.w3.org/2000/svg"><path d="M24 24H0V0h24v24" fill="none"/><path d="M14.9 4q.9-1 2.5-1 1.5 0 2.55.95l.05.1q1 1 1 2.5 0 1.6-1.05 2.55H20L17.15 12 20 14.85q1 1 1 2.5t-1 2.55h-.05Q18.9 21 17.4 21q-1.6 0-2.55-1.1h.05l-2.85-2.8-2.9 2.8h.05Q8.2 21 6.65 21q-1.5 0-2.55-1.1Q3 18.85 3 17.35q0-1.5 1.1-2.55L6.85 12 4.1 9.1Q3 8.1 3 6.55 3 5.05 4.1 4v-.05Q5.15 3 6.65 3q1.55 0 2.5 1l2.9 2.8L14.9 4" fill="#333" fill-rule="evenodd"/><path d="M15.5 4.6q.75-.7 1.9-.7 1.1 0 1.95.7.75.85.75 1.95 0 1.15-.75 1.95L15.9 12l3.45 3.4q.75.85.75 1.95 0 1.15-.75 1.95-.85.8-1.95.8-1.15 0-1.9-.8l-3.45-3.5-3.5 3.5q-.75.8-1.9.8t-1.95-.8q-.8-.8-.8-1.95 0-1.1.8-1.95L8.15 12 4.7 8.5q-.8-.8-.8-1.95 0-1.1.8-1.95.8-.7 1.95-.7t1.9.7l3.5 3.5 3.45-3.5" fill="#ea2f2f" fill-rule="evenodd"/></svg>

<?xml version="1.0" encoding="UTF-8" standalone="no"?>
<svg xmlns:xlink="http://www.w3.org/1999/xlink" height="24.0px" width="24.0px" xmlns="http://www.w3.org/2000/svg">
  <g transform="matrix(1.0, 0.0, 0.0, 1.0, 0.0, 0.0)">
    <path d="M24.0 24.0 L0.0 24.0 0.0 0.0 24.0 0.0 24.0 24.0" fill="#010101" fill-opacity="0.0" fill-rule="evenodd" stroke="none"/>
    <path d="M14.9 4.0 Q15.8 3.0 17.4 3.0 18.9 3.0 19.95 3.95 L20.0 4.05 Q21.0 5.05 21.0 6.55 21.0 8.15 19.95 9.1 L20.0 9.1 17.15 12.0 20.0 14.85 Q21.0 15.85 21.0 17.35 21.0 18.85 20.0 19.9 L19.95 19.9 Q18.9 21.0 17.4 21.0 15.8 21.0 14.85 19.9 L14.9 19.9 12.05 17.1 9.15 19.9 9.2 19.9 Q8.2 21.0 6.65 21.0 5.15 21.0 4.1 19.9 3.0 18.85 3.0 17.35 3.0 15.85 4.1 14.8 L6.85 12.0 4.1 9.1 Q3.0 8.1 3.0 6.55 3.0 5.05 4.1 4.0 L4.1 3.95 Q5.15 3.0 6.65 3.0 8.2 3.0 9.15 4.0 L12.05 6.8 14.9 4.0" fill="#333333" fill-rule="evenodd" stroke="none"/>
    <path d="M15.5 4.6 Q16.25 3.9 17.4 3.9 18.5 3.9 19.35 4.6 20.1 5.45 20.1 6.55 20.1 7.7 19.35 8.5 L15.9 12.0 19.35 15.4 Q20.1 16.25 20.1 17.35 20.1 18.5 19.35 19.3 18.5 20.1 17.4 20.1 16.25 20.1 15.5 19.3 L12.05 15.8 8.55 19.3 Q7.8 20.1 6.65 20.1 5.5 20.1 4.7 19.3 3.9 18.5 3.9 17.35 3.9 16.25 4.7 15.4 L8.15 12.0 4.7 8.5 Q3.9 7.7 3.9 6.55 3.9 5.45 4.7 4.6 5.5 3.9 6.65 3.9 7.8 3.9 8.55 4.6 L12.05 8.1 15.5 4.6" fill="#ea2f2f" fill-rule="evenodd" stroke="none"/>
  </g>
</svg>
